X:1
T:Title
%%score { ( 1 3 ) | ( 2 4 ) }
L:1/8
M:4/4
K:Eb
V:1 treble nm="Grand Piano"
V:3 treble 
V:2 bass 
V:4 bass 
V:1
 z4 z2[Q:1/4=100] G>F | E>E E>F G>G G>[FA] | [GB]>[GB] [GB]>[Ac] [GB]3 [Ge] | %3
 [Ge]3 [Ac] [GB]2 [EG]2 | [EG]4 [DF]2 [DG]>[DF] | E>E E>F G>G G>[FA] | %6
 [GB]>[GB] [GB]>[Ac] [GB]3 [Ge] | [Ge]3 [Ac] [GB]2 [B,EG]2 | [A,DF]4 [G,E]4 | %9
 [EAc]>[EAc] [EAc]>[EBd] [Ece]>[Ece] [EBd]>[EAc] | [EGB]>[EAc] [EGB]>[B,EG] [EGB]3 [EGB] | %11
 [EAc]>[EAc] [EAc]>[EBd] [Ece]>[Ece] [EBd]>[EAc] | [EGB]>[EAc] [EGB]>[B,EG] [B,DF]2 D->[DF] | %13
 E>E E>F G>G G>[FA] | [GB]>[GB] [GB]>[Ac] [GB]3 [Ge] | [Ge]3 [Ac] [GB]2 [EG]2 | %16
[M:7/8] [DF]- [DF]3 E3 |] %17
V:2
 z4 z2 [E,B,E]>[E,A,E] | [E,G,]>[E,G,] [E,G,]>[E,A,E] [E,B,E]>[E,B,E] [E,B,E]>[E,B,] | %2
 [E,E]>[E,E] [E,E]>[E,E] [E,E]3 [E,B,] | [E,B,]3 [E,E] [E,E]2 [E,B,]2 | %4
 [B,,B,]4 [B,,A,]2 [B,,B,]>[B,,A,] | [E,G,]>[E,G,] [E,G,]>[E,A,E] [E,B,E]>[E,B,E] [E,B,E]>[E,B,] | %6
 [E,E]>[E,E] [E,E]>[E,E] [E,E]3 [E,B,] | [E,B,]3 [E,E] [E,E]2 E,2 | B,,4 E,4 | %9
 A,>A, A,>A, A,>A, A,>A, | E,>E, E,>E, E,3 E, | A,>A, A,>A, A,>A, A,>A, | %12
 E,>E, E,>E, B,,2 z z/ A,/ | [E,G,]>[E,G,] [E,G,]>[E,A,E] [E,B,E]>[E,B,E] [E,B,E]>[E,B,] | %14
 [E,E]>[E,E] [E,E]>[E,E] [E,E]3 [E,B,] | [E,B,]3 [E,E] [E,E]2 [E,B,]2 | %16
[M:7/8] [B,,A,]- [B,,A,]3 [E,G,]3 |] %17
V:3
 x8 | x8 | x8 | x8 | x8 | x8 | x8 | x8 | x8 | x8 | x8 | x8 | z4 z2 [B,G]2 | x8 | x8 | x8 | %16
[M:7/8] x7 |] %17
V:4
 x8 | x8 | x8 | x8 | x8 | x8 | x8 | x8 | x8 | x8 | x8 | x8 | z4 z2 B,,2 | x8 | x8 | x8 | %16
[M:7/8] x7 |] %17

